X:5
M: C|
L:1/8
K:A
[A,2E2A2] (cA) (ef)ec | [A2a2] (ec) B/B/B B2 |\
|: [A,2A2] [Cc][A,A] [Ee][A,A][Cc][A,A] | [A,2A2] [A,A][Cc] [B,/B/][B,/B/][B,B] [B,2B2] |\
[A,2A2] [Cc][A,A] [Ee][A,A][Cc][A,A] | c>ed>B A/A/A A2 |
[A,2A2] [Cc][A,A] [Ee][A,A][Cc][A,A] | [A,2A2 |\
[A,A][Cc] [B,/B/][B,/B/][B,B] [B,B][Cc] | [A,A][Cc][Ee][Cc] [A,3E,3A,3] f |\
e>cB>c A/A/A A2 :|

